X: 1
T:Home Ruler, The
N:transcribed by Alan Ng
C:Frank McCollum
R:hornpipe
S:as played by Alan Ng in Madison, Wisconsin
Z: id:ng-other-6 transcribed by Alan Ng agng@students.wisc.edu October 21, 1998
E:7
M:C|
K:D
A,B,|D2 FA D2 FA|dfed B2dB|A2AB AFDE|FD{F}ED B,DA,B,|D2 FA D2 FA|dfed B2dB|A2AB AFDE|F2D2D2::\
AB|Ad{e}dc defg|afbf afed|efed BA (3Bcd|fded BdAF|Ad{e}dc defg|afbf afed|efed BA (3dcB|AFEF D2:|**
